mimes/128/application-pdf.svg

<?xml version="1.0" encoding="UTF-8" standalone="no"?>
<svg
   xmlns:dc="http://purl.org/dc/elements/1.1/"
   xmlns:cc="http://creativecommons.org/ns#"
   xmlns:rdf="http://www.w3.org/1999/02/22-rdf-syntax-ns#"
   xmlns:svg="http://www.w3.org/2000/svg"
   xmlns="http://www.w3.org/2000/svg"
   xmlns:xlink="http://www.w3.org/1999/xlink"
   version="1.1"
   width="128"
   height="128"
   id="svg3172">
  <defs
     id="defs3174">
    <linearGradient
       id="linearGradient3977">
      <stop
         id="stop3979"
         style="stop-color:#ffffff;stop-opacity:1"
         offset="0" />
      <stop
         id="stop3981"
         style="stop-color:#ffffff;stop-opacity:0.23529412"
         offset="0.00648027" />
      <stop
         id="stop3983"
         style="stop-color:#ffffff;stop-opacity:0.15686275"
         offset="0.99423188" />
      <stop
         id="stop3985"
         style="stop-color:#ffffff;stop-opacity:0.39215687"
         offset="1" />
    </linearGradient>
    <linearGradient
       id="linearGradient3702-501-757-486">
      <stop
         id="stop3100"
         style="stop-color:#181818;stop-opacity:0"
         offset="0" />
      <stop
         id="stop3102"
         style="stop-color:#181818;stop-opacity:1"
         offset="0.5" />
      <stop
         id="stop3104"
         style="stop-color:#181818;stop-opacity:0"
         offset="1" />
    </linearGradient>
    <linearGradient
       id="linearGradient3688-464-309-255">
      <stop
         id="stop3094"
         style="stop-color:#181818;stop-opacity:1"
         offset="0" />
      <stop
         id="stop3096"
         style="stop-color:#181818;stop-opacity:0"
         offset="1" />
    </linearGradient>
    <linearGradient
       id="linearGradient3688-166-749-737">
      <stop
         id="stop3088"
         style="stop-color:#181818;stop-opacity:1"
         offset="0" />
      <stop
         id="stop3090"
         style="stop-color:#181818;stop-opacity:0"
         offset="1" />
    </linearGradient>
    <linearGradient
       x1="23.99999"
       y1="5.5641499"
       x2="23.99999"
       y2="42.194839"
       id="linearGradient3016"
       xlink:href="#linearGradient3977"
       gradientUnits="userSpaceOnUse"
       gradientTransform="matrix(2.4594595,0,0,3.1081081,4.9729852,-14.594559)" />
    <linearGradient
       x1="25.058096"
       y1="47.027729"
       x2="25.058096"
       y2="39.999443"
       id="linearGradient3024"
       xlink:href="#linearGradient3702-501-757-486"
       gradientUnits="userSpaceOnUse"
       gradientTransform="matrix(3.1428572,0,0,1.2857143,-11.428573,61.571428)" />
    <radialGradient
       cx="4.9929786"
       cy="43.5"
       r="2.5"
       fx="4.9929786"
       fy="43.5"
       id="radialGradient3027"
       xlink:href="#linearGradient3688-464-309-255"
       gradientUnits="userSpaceOnUse"
       gradientTransform="matrix(2.4045407,0,0,1.7999999,-32.014243,-195.8)" />
    <radialGradient
       cx="4.9929786"
       cy="43.5"
       r="2.5"
       fx="4.9929786"
       fy="43.5"
       id="radialGradient3030"
       xlink:href="#linearGradient3688-166-749-737"
       gradientUnits="userSpaceOnUse"
       gradientTransform="matrix(2.4045407,0,0,1.7999999,95.985757,39.200001)" />
    <linearGradient
       id="linearGradient3242-4">
      <stop
         id="stop3244-7"
         style="stop-color:#f89b7e;stop-opacity:1"
         offset="0" />
      <stop
         id="stop3246-1"
         style="stop-color:#e35d4f;stop-opacity:1"
         offset="0.26238" />
      <stop
         id="stop3248-5"
         style="stop-color:#c6262e;stop-opacity:1"
         offset="0.66093999" />
      <stop
         id="stop3250-7"
         style="stop-color:#690b2c;stop-opacity:1"
         offset="1" />
    </linearGradient>
    <linearGradient
       id="linearGradient5803-2-7">
      <stop
         id="stop5805-3-6"
         style="stop-color:#fffdf3;stop-opacity:1"
         offset="0" />
      <stop
         id="stop5807-0-0"
         style="stop-color:#fbebeb;stop-opacity:1"
         offset="1" />
    </linearGradient>
    <linearGradient
       xlink:href="#linearGradient5803-2-7"
       id="linearGradient3892"
       gradientUnits="userSpaceOnUse"
       gradientTransform="matrix(2.1514141,0,0,2.151414,-129.5392,-8.7570692)"
       x1="167.98311"
       y1="8.50811"
       x2="167.98311"
       y2="54.780239" />
    <radialGradient
       xlink:href="#linearGradient3242-4"
       id="radialGradient3897"
       gradientUnits="userSpaceOnUse"
       gradientTransform="matrix(0,20.003199,-24.504002,0,309.11226,-193.38737)"
       cx="8.276144"
       cy="9.9941158"
       fx="8.276144"
       fy="9.9941158"
       r="12.671875" />
  </defs>
  <metadata
     id="metadata3177">
    <rdf:RDF>
      <cc:Work
         rdf:about="">
        <dc:format>image/svg+xml</dc:format>
        <dc:type
           rdf:resource="http://purl.org/dc/dcmitype/StillImage" />
        <dc:title />
      </cc:Work>
    </rdf:RDF>
  </metadata>
  <rect
     width="6"
     height="8.999999"
     x="108"
     y="113"
     id="rect2801"
     style="opacity:0.4;fill:url(#radialGradient3030);fill-opacity:1;stroke:none" />
  <rect
     width="6"
     height="8.999999"
     x="-20"
     y="-122"
     transform="scale(-1,-1)"
     id="rect3696"
     style="opacity:0.4;fill:url(#radialGradient3027);fill-opacity:1;stroke:none" />
  <rect
     width="88"
     height="9"
     x="20"
     y="113"
     id="rect3700"
     style="opacity:0.4;fill:url(#linearGradient3024);fill-opacity:1;stroke:none" />
  <path
     style="color:#000000;fill:url(#radialGradient3897);fill-opacity:1;fill-rule:nonzero;stroke:none;stroke-width:0.99999994;marker:none;visibility:visible;display:inline;overflow:visible;enable-background:accumulate"
     id="path4160-6"
     d="m 17.50007,1.5002015 c 21.31099,0 92.99974,0.0081 92.99974,0.0081 l 1.1e-4,116.9914984 c 0,0 -61.99989,0 -92.99985,0 0,-38.999899 0,-77.999189 0,-116.9989215 z" />
  <path
     style="opacity:0.14999999999999999;color:#000000;fill:#661215;fill-opacity:1;fill-rule:evenodd;stroke:none;stroke-width:1;marker:none;visibility:visible;display:inline;overflow:visible;enable-background:accumulate"
     d="M 75.5625 2.03125 A 0.98324003 0.98324003 0 0 0 75.125 2.25 C 48.299767 25.267517 29.356352 34.778601 17.6875 38.6875 A 0.98324003 0.98324003 0 0 0 17.5 38.78125 L 17.5 52.6875 A 0.98324003 0.98324003 0 0 0 18.28125 52.8125 C 24.920984 50.857341 33.15547 47.644728 41.71875 42.28125 C 59.312153 31.261863 77.531089 13.572945 81.65625 9.53125 C 79.14807 17.014123 77.489857 29.184439 76.40625 45.71875 C 75.132151 65.1597 74.660047 90.11717 74.59375 118.5 L 110.5 118.5 L 110.5 72.5625 C 109.18598 66.578932 107.97744 60.561392 106.90625 54.75 C 106.90348 54.728956 106.90901 54.70854 106.90625 54.6875 C 103.77689 30.841491 108.40573 9.9629389 110.125 3.25 A 0.98324003 0.98324003 0 0 0 109.1875 2.03125 C 108.73045 2.0311989 88.858519 2.03256 75.75 2.03125 A 0.98324003 0.98324003 0 0 0 75.5625 2.03125 z M 18 65.6875 A 0.98324003 0.98324003 0 0 0 17.8125 65.71875 A 0.98324003 0.98324003 0 0 0 17.5 65.84375 L 17.5 79.34375 A 0.98324003 0.98324003 0 0 0 17.625 79.40625 C 32.077352 85.371662 49.058722 100.78652 58.5625 118.5 L 71.0625 118.5 C 68.610107 109.75098 60.143329 99.300578 50 89.625 C 39.761468 79.858609 27.800792 70.947897 18.46875 65.8125 A 0.98324003 0.98324003 0 0 0 18 65.6875 z "
     id="path3970" />
  <path
     style="color:#000000;fill:#661215;fill-opacity:1;fill-rule:evenodd;stroke:none;marker:none;visibility:visible;display:inline;overflow:visible;enable-background:accumulate;opacity:0.29999999999999999;stroke-width:1"
     d="M 75.75 3 C 48.852928 26.079159 29.82062 35.665261 18 39.625 L 18 51.875 C 24.569499 49.940523 32.713932 46.744788 41.1875 41.4375 C 60.682657 29.226976 83.9375 6.0625 83.9375 6.0625 C 77.564731 18.563069 75.696093 61.582894 75.5625 118.5 L 110 118.5 L 110 74.9375 C 108.48949 68.213746 107.14164 61.410754 105.9375 54.875 C 102.76557 30.804872 107.45098 9.7803104 109.1875 3 C 108.73565 2.9999495 88.858686 3.00131 75.75 3 z M 18 66.6875 L 18 78.5 C 32.870898 84.638172 50.082368 100.38035 59.65625 118.5 L 70.03125 118.5 C 65.088123 101.69191 36.261871 76.736957 18 66.6875 z "
     id="path6711-4" />
  <path
     style="color:#000000;fill:url(#linearGradient3892);fill-opacity:1;fill-rule:nonzero;stroke:none;marker:none;visibility:visible;display:inline;overflow:visible;enable-background:accumulate"
     d="M 75.749995,2.0000014 C 48.852923,25.07916 29.82062,34.665262 18,38.625001 l 0,12.250001 C 24.569499,48.940525 32.713935,45.74479 41.187503,40.437502 60.68266,28.226978 83.9375,5.0625011 83.9375,5.0625011 77.545479,17.600835 75.686015,60.826777 75.562501,118 L 110,118 110,73.937502 c -1.51051,-6.723754 -2.85837,-13.526746 -4.06251,-20.0625 -3.17193,-24.070128 1.51349,-45.0946902 3.25001,-51.8750006 -0.45185,-5.05e-5 -20.328819,0.00131 -33.437505,0 z M 18,65.687502 l 0,11.8125 C 33.009298,83.695301 50.419177,99.667559 59.937501,118 L 70.1875,118 C 65.676635,101.19076 36.442618,75.836423 18,65.687502 z"
     id="path6711" />
  <path
     style="opacity:0.05;fill:#000000;fill-opacity:1;fill-rule:evenodd;stroke:none"
     d="M 110,3 C 95.399947,11.822582 53.75884,35.098466 18,37.19425 l 0,27.33044 c 20.876999,2.096833 64.873436,4.690049 92,-6.863809 L 110,3 z m 0,71.383616 C 98.749557,87.395617 88.089596,102.53332 80.312498,118 l 12.249999,0 C 97.719194,109.30275 103.80788,100.06228 110,91.979926 l 0,-17.59631 z"
     id="path6713" />
  <path
     d="m 109.5,117.5 -91,0 0,-115.000003 91,0 z"
     id="rect6741-1"
     style="fill:none;stroke:url(#linearGradient3016);stroke-width:1;stroke-linecap:round;stroke-linejoin:round;stroke-miterlimit:4;stroke-opacity:1;stroke-dasharray:none;stroke-dashoffset:0;opacity:0.5" />
  <path
     style="opacity:0.35;color:#000000;fill:none;stroke:#410000;stroke-width:1;stroke-linecap:round;stroke-linejoin:round;stroke-miterlimit:4;stroke-opacity:1;stroke-dasharray:none;stroke-dashoffset:0;marker:none;visibility:visible;display:inline;overflow:visible;enable-background:accumulate"
     id="path4160-6-1"
     d="m 17.5,1.5000252 c 21.31099,0 92.9999,0.0079 92.9999,0.0079 L 110.49999,118.5 c 0,0 -62,0 -92.99999,0 0,-39.000124 0,-77.999847 0,-116.9995108 z" />
</svg>

<svg xmlns="http://www.w3.org/2000/svg" xmlns:xlink="http://www.w3.org/1999/xlink" viewBox="0 0 128 128"><defs><linearGradient id="a"><stop offset="0" stop-color="#fff"/><stop offset=".006" stop-color="#fff" stop-opacity=".235"/><stop offset=".994" stop-color="#fff" stop-opacity=".157"/><stop offset="1" stop-color="#fff" stop-opacity=".392"/></linearGradient><linearGradient id="b"><stop offset="0" stop-color="#181818" stop-opacity="0"/><stop offset=".5" stop-color="#181818"/><stop offset="1" stop-color="#181818" stop-opacity="0"/></linearGradient><linearGradient id="c"><stop offset="0" stop-color="#181818"/><stop offset="1" stop-color="#181818" stop-opacity="0"/></linearGradient><linearGradient id="d"><stop offset="0" stop-color="#181818"/><stop offset="1" stop-color="#181818" stop-opacity="0"/></linearGradient><linearGradient x1="24" y1="5.564" x2="24" y2="42.195" id="l" xlink:href="#a" gradientUnits="userSpaceOnUse" gradientTransform="matrix(2.45946 0 0 3.1081 4.973 -14.595)"/><linearGradient x1="25.058" y1="47.028" x2="25.058" y2="39.999" id="i" xlink:href="#b" gradientUnits="userSpaceOnUse" gradientTransform="matrix(3.14286 0 0 1.2857 -11.43 61.57)"/><radialGradient cx="4.993" cy="43.5" r="2.5" fx="4.993" fy="43.5" id="h" xlink:href="#c" gradientUnits="userSpaceOnUse" gradientTransform="matrix(2.40454 0 0 1.8 -32.014 -195.8)"/><radialGradient cx="4.993" cy="43.5" r="2.5" fx="4.993" fy="43.5" id="g" xlink:href="#d" gradientUnits="userSpaceOnUse" gradientTransform="matrix(2.40454 0 0 1.8 95.986 39.2)"/><linearGradient id="f"><stop offset="0" stop-color="#f89b7e"/><stop offset=".262" stop-color="#e35d4f"/><stop offset=".661" stop-color="#c6262e"/><stop offset="1" stop-color="#690b2c"/></linearGradient><linearGradient id="e"><stop offset="0" stop-color="#fffdf3"/><stop offset="1" stop-color="#fbebeb"/></linearGradient><linearGradient xlink:href="#e" id="k" gradientUnits="userSpaceOnUse" gradientTransform="translate(-129.54 -8.757) scale(2.1514)" x1="167.983" y1="8.508" x2="167.983" y2="54.78"/><radialGradient xlink:href="#f" id="j" gradientUnits="userSpaceOnUse" gradientTransform="matrix(0 20.0032 -24.504 0 309.07 -193.37)" cx="8.276" cy="9.994" fx="8.276" fy="9.994" r="12.672"/></defs><path opacity=".4" fill="url(#g)" d="M108 113h6v9h-6z"/><path transform="scale(-1)" opacity=".4" fill="url(#h)" d="M-20-122h6v9h-6z"/><path opacity=".4" fill="url(#i)" d="M20 113h88v9H20z"/><path d="M17.5 1.5c21.31 0 93 .008 93 .008V118.5h-93V1.5z" color="#000" fill="url(#j)" overflow="visible"/><path d="M75.563 2.03a.983.983 0 0 0-.438.22C48.3 25.268 29.355 34.78 17.687 38.688a.983.983 0 0 0-.187.093v13.91a.983.983 0 0 0 .78.126A94.48 94.48 0 0 0 41.72 42.28C59.31 31.263 77.53 13.574 81.655 9.53c-2.508 7.484-4.166 19.654-5.25 36.19-1.274 19.44-1.746 44.397-1.812 72.78H110.5V72.562c-1.314-5.983-2.523-12-3.594-17.812-.003-.02.003-.04 0-.063-3.13-23.846 1.5-44.724 3.22-51.437a.983.983 0 0 0-.94-1.22c-.456 0-20.327.003-33.436 0a.983.983 0 0 0-.188 0zM18 65.688a.983.983 0 0 0-.188.032.983.983 0 0 0-.312.124v13.5a.983.983 0 0 0 .125.062c14.452 5.966 31.434 21.38 40.938 39.094h12.5C68.61 109.75 60.143 99.3 50 89.625 39.76 79.86 27.8 70.948 18.47 65.812a.983.983 0 0 0-.47-.124z" opacity=".15" color="#000" fill="#661215" fill-rule="evenodd" overflow="visible"/><path d="M75.75 3C48.853 26.08 29.82 35.665 18 39.625v12.25a93.596 93.596 0 0 0 23.188-10.438c19.495-12.21 42.75-35.374 42.75-35.374-6.373 12.5-8.242 55.52-8.376 112.437H110V74.937c-1.51-6.723-2.858-13.526-4.063-20.062-3.17-24.07 1.514-45.095 3.25-51.875H75.75zM18 66.688V78.5c14.87 6.138 32.082 21.88 41.656 40H70.03C65.09 101.692 36.263 76.737 18 66.687z" color="#000" fill="#661215" fill-rule="evenodd" overflow="visible" opacity=".3"/><path d="M75.75 2C48.853 25.08 29.82 34.665 18 38.625v12.25a93.596 93.596 0 0 0 23.188-10.437c19.495-12.21 42.75-35.375 42.75-35.375C77.544 17.6 75.686 60.827 75.563 118H110V73.938c-1.51-6.724-2.858-13.527-4.063-20.063-3.17-24.07 1.514-45.095 3.25-51.875H75.75zM18 65.688V77.5c15.01 6.195 32.42 22.168 41.938 40.5h10.25C65.678 101.19 36.443 75.836 18 65.688z" color="#000" fill="url(#k)" overflow="visible"/><path d="M110 3c-14.6 8.823-56.24 32.098-92 34.194v27.33c20.877 2.098 64.873 4.69 92-6.863V3zm0 71.384C98.75 87.396 88.09 102.534 80.312 118h12.25c5.157-8.697 11.246-17.938 17.438-26.02V74.384z" opacity=".05" fill-rule="evenodd"/><path d="M109.5 117.5h-91V2.5h91z" fill="none" stroke="url(#l)" stroke-linecap="round" stroke-linejoin="round" opacity=".5"/><path d="M17.5 1.5c21.31 0 93 .008 93 .008V118.5h-93V1.5z" opacity=".35" color="#000" fill="none" stroke="#410000" stroke-linecap="round" stroke-linejoin="round" overflow="visible"/></svg>
